static/logos/google_play-glyph-color.svg

<svg width="32" height="32" viewBox="0 0 32 32" fill="none" xmlns="http://www.w3.org/2000/svg">
<mask id="mask0_1261_312" style="mask-type:alpha" maskUnits="userSpaceOnUse" x="7" y="3" width="24" height="26">
<path d="M30.0484 14.4004C31.3172 15.0986 31.3172 16.9014 30.0484 17.5996L9.75627 28.7658C8.52052 29.4459 7 28.5634 7 27.1663L7 4.83374C7 3.43657 8.52052 2.55415 9.75627 3.23415L30.0484 14.4004Z" fill="#C4C4C4"/>
</mask>
<g mask="url(#mask0_1261_312)">
<path d="M7.63473 28.5464L20.2923 15.8177L7.84319 3.29865C7.34653 3.61703 7 4.16672 7 4.83372V27.1662C7 27.7353 7.25223 28.219 7.63473 28.5464Z" fill="url(#paint0_linear_1261_312)"/>
<path d="M30.0484 14.4004C31.3172 15.0986 31.3172 16.9014 30.0484 17.5996L24.9291 20.4166L20.2924 15.8176L24.6926 11.4532L30.0484 14.4004Z" fill="url(#paint1_linear_1261_312)"/>
<path d="M24.9291 20.4166L20.2923 15.8177L7.6347 28.5464C8.19133 29.0231 9.02383 29.1689 9.75629 28.7659L24.9291 20.4166Z" fill="url(#paint2_linear_1261_312)"/>
<path d="M7.8432 3.29865L20.2923 15.8177L24.6926 11.4533L9.75625 3.23415C9.11046 2.87878 8.38688 2.95013 7.8432 3.29865Z" fill="url(#paint3_linear_1261_312)"/>
</g>
<defs>
<linearGradient id="paint0_linear_1261_312" x1="15.6769" y1="10.8738" x2="7.07106" y2="19.5504" gradientUnits="userSpaceOnUse">
<stop stop-color="#00C3FF"/>
<stop offset="1" stop-color="#1BE2FA"/>
</linearGradient>
<linearGradient id="paint1_linear_1261_312" x1="20.2924" y1="15.8177" x2="31.7385" y2="15.8177" gradientUnits="userSpaceOnUse">
<stop stop-color="#FFCE00"/>
<stop offset="1" stop-color="#FFEA00"/>
</linearGradient>
<linearGradient id="paint2_linear_1261_312" x1="7.36926" y1="30.1002" x2="22.5949" y2="17.8935" gradientUnits="userSpaceOnUse">
<stop stop-color="#DE2453"/>
<stop offset="1" stop-color="#FE3944"/>
</linearGradient>
<linearGradient id="paint3_linear_1261_312" x1="8.10768" y1="1.90137" x2="22.5975" y2="13.7365" gradientUnits="userSpaceOnUse">
<stop stop-color="#11D574"/>
<stop offset="1" stop-color="#01F176"/>
</linearGradient>
</defs>
</svg>

<svg xmlns="http://www.w3.org/2000/svg" width="64" height="64" fill="none" viewBox="0 0 32 32"><mask id="a" width="24" height="26" x="7" y="3" maskUnits="userSpaceOnUse" style="mask-type:alpha"><path fill="#C4C4C4" d="M30.048 14.4a1.82 1.82 0 0 1 0 3.2L9.756 28.766c-1.235.68-2.756-.203-2.756-1.6V4.834c0-1.397 1.52-2.28 2.756-1.6z"/></mask><g mask="url(#a)"><path fill="url(#b)" d="m7.635 28.546 12.657-12.728L7.843 3.298A1.81 1.81 0 0 0 7 4.835v22.332c0 .57.252 1.053.635 1.38"/><path fill="url(#c)" d="M30.048 14.4a1.82 1.82 0 0 1 0 3.2l-5.119 2.817-4.637-4.6 4.4-4.364z"/><path fill="url(#d)" d="m24.93 20.417-4.638-4.6-12.657 12.73c.556.476 1.389.622 2.121.219z"/><path fill="url(#e)" d="m7.843 3.299 12.45 12.519 4.4-4.365L9.756 3.234a1.86 1.86 0 0 0-1.913.065"/></g><defs><linearGradient id="b" x1="15.677" x2="7.071" y1="10.874" y2="19.55" gradientUnits="userSpaceOnUse"><stop stop-color="#00C3FF"/><stop offset="1" stop-color="#1BE2FA"/></linearGradient><linearGradient id="c" x1="20.292" x2="31.738" y1="15.818" y2="15.818" gradientUnits="userSpaceOnUse"><stop stop-color="#FFCE00"/><stop offset="1" stop-color="#FFEA00"/></linearGradient><linearGradient id="d" x1="7.369" x2="22.595" y1="30.1" y2="17.893" gradientUnits="userSpaceOnUse"><stop stop-color="#DE2453"/><stop offset="1" stop-color="#FE3944"/></linearGradient><linearGradient id="e" x1="8.108" x2="22.598" y1="1.901" y2="13.736" gradientUnits="userSpaceOnUse"><stop stop-color="#11D574"/><stop offset="1" stop-color="#01F176"/></linearGradient></defs></svg>
